icons/shield-arrow-right-outline.svg

<svg xmlns="http://www.w3.org/2000/svg" width="24" height="24" viewBox="0 0 24 24">
  <path d="M12,1 C15.5169906,1 18.3742467,1.71431401 20.5547002,3.16794971 C20.8328989,3.35341548 21,3.66564681 21,4 L21,4 L21,12.9096249 C20.9981658,16.3441397 19.0497159,19.5919666 16.0272136,21.1044272 L16.0272136,21.1044272 L12.4472136,22.8944272 C12.1656861,23.0351909 11.8343139,23.0351909 11.5527864,22.8944272 L11.5527864,22.8944272 L7.97250014,21.104284 C4.95028406,19.5919666 3.00183418,16.3441397 3,12.9090909 L3,12.9090909 L3,4 C3,3.66564681 3.16710114,3.35341548 3.4452998,3.16794971 C5.62575334,1.71431401 8.48300939,1 12,1 Z M11.9999999,3 C9.15029309,3 6.85199016,3.50672557 5.09245014,4.5016552 L5.09245014,4.5016552 L4.99999986,4.555 L4.99999986,12.9085569 C5.00138724,15.5066311 6.43129904,17.976644 8.636365,19.1941391 L8.636365,19.1941391 L8.8672136,19.3155728 L11.9999999,20.881 L15.1325001,19.315716 C17.3905248,18.1858001 18.8956579,15.7647258 18.9947875,13.1773026 L18.9947875,13.1773026 L18.9999999,12.9090909 L18.9999999,4.556 L18.9075499,4.5016552 C17.2406172,3.55909028 15.0901411,3.0546919 12.4453733,3.00420832 L12.4453733,3.00420832 Z M15.767,11.359 L15.7803112,11.374551 L15.7837744,11.3788907 L15.779,11.374 L15.8036654,11.4046934 L15.8036654,11.4046934 C15.8215099,11.4288693 15.8382813,11.453725 15.8539326,11.4793398 L15.8753288,11.5159379 L15.8753288,11.5159379 C15.8862061,11.5357061 15.8966234,11.5561086 15.9063462,11.5769009 L15.9287745,11.628664 L15.9287745,11.628664 C15.9366843,11.6484208 15.9438775,11.6682023 15.9504533,11.6882636 C15.9552713,11.7031487 15.9599023,11.7185367 15.9641549,11.734007 C15.9701664,11.7555635 15.9753602,11.7772539 15.9798348,11.7992059 C15.9832978,11.8166247 15.9863719,11.834051 15.9889822,11.8515331 L15.996002,11.909968 L15.996002,11.909968 C15.99693,11.9208131 15.9976744,11.9308872 15.9982669,11.9409686 L15.9998198,11.980824 C15.9999398,11.9872016 16,11.9935938 16,12 L15.999,12.019 L15.9982669,12.0590314 L15.997,12.075 L15.9889807,12.1489612 L15.9889807,12.1489612 C15.9863719,12.165949 15.9832978,12.1833753 15.9797599,12.2007258 C15.9753602,12.2227461 15.9701664,12.2444365 15.964279,12.2658396 C15.9599023,12.2814633 15.9552713,12.2968513 15.9502619,12.3121425 C15.9438775,12.3317977 15.9366843,12.3515792 15.928896,12.3710585 L15.9063266,12.4232215 L15.9063266,12.4232215 C15.8966234,12.4438914 15.8862061,12.4642939 15.8751242,12.484277 C15.8685012,12.4963944 15.8613931,12.5086131 15.8540045,12.5207088 C15.8382813,12.546275 15.8215099,12.5711307 15.8036865,12.5951593 C15.7992821,12.6012086 15.7948255,12.6070733 15.7902954,12.6128994 C15.7849289,12.6196628 15.7826279,12.6225624 15.7803112,12.625449 L15.7071068,12.7071068 L12.7071068,15.7071068 C12.3165825,16.0976311 11.6834175,16.0976311 11.2928932,15.7071068 C10.9324093,15.3466228 10.9046797,14.7793918 11.2097046,14.3871006 L11.2928932,14.2928932 L12.585,13 L9,13 C8.44771525,13 8,12.5522847 8,12 C8,11.4871642 8.38604019,11.0644928 8.88337887,11.0067277 L9,11 L12.585,11 L11.2928932,9.70710678 C10.9023689,9.31658249 10.9023689,8.68341751 11.2928932,8.29289322 C11.6533772,7.93240926 12.2206082,7.90467972 12.6128994,8.20970461 L12.7071068,8.29289322 L15.7071068,11.2928932 L15.775,11.37 L15.767,11.359 Z"/>
</svg>

<svg xmlns="http://www.w3.org/2000/svg" viewBox="0 0 24 24">
  <path d="M12 1c3.52 0 6.37.71 8.55 2.17A1 1 0 0 1 21 4v8.91a9.23 9.23 0 0 1-4.97 8.2l-3.58 1.78a1 1 0 0 1-.9 0L7.97 21.1A9.23 9.23 0 0 1 3 12.9V4a1 1 0 0 1 .45-.83C5.63 1.7 8.48 1 12 1zm0 2c-2.85 0-5.15.5-6.9 1.5l-.1.05v8.36c0 2.6 1.43 5.07 3.64 6.28l.23.13L12 20.88l3.13-1.56A7.22 7.22 0 0 0 19 13.18l.01-.27V4.56l-.1-.06c-1.66-.94-3.81-1.45-6.45-1.5zm3.77 8.36.01.01.02.03.05.08.03.04.03.06.02.05a.99.99 0 0 1 .06.22v.09l.01.04v.09l-.01.08a1.08 1.08 0 0 1-.06.22l-.02.05a1.02 1.02 0 0 1-.13.2l-.07.09-3 3a1 1 0 0 1-1.5-1.32l.08-.1L12.6 13H9a1 1 0 0 1-.12-2h3.71l-1.3-1.3a1 1 0 0 1 1.32-1.49l.1.08 3 3 .06.08v-.01z"/>
</svg>
